X: 84
T:Trumpet Hornpipe
T:Captain Pugwash
M:2/2
L:1/8
Q:1/2=84
C:Maybe Traditional, Maybe Not ...
R:Hornpipe
N:Originally a squeezebox tune
N:From memory
N:Posted to the woodenflute mailing list October 2001
Z:Clive Catterall
K:G
(3.G.G.G .G2 (3.G.G.G .G>d|B>G B>d g>d B>G|\
(3.D.D.D .D2 (3.D.D.D .D>A|F>D F>A d>A F>D|
(3.G.G.G G2 (3.G.G.G .G>d|B>G B>d g2 g2|\
f>a g>f e>d ^c>e|[1 .d2 .d2 d4 :|
[2 .d2 .d2 d2 B>c |: (3.d.d.d .d2 (3.d.d.d .d2|\
e>f g>f e>d c>B|c>d e>d c>B A>G|
A>B c>B A>G F>A| (3.G.G.G .G2 (3.G.G.G .G2|\
(3.G.G.G .G2 (3.G.G.G .G2|B>c d>c B>A F>A|G2 B2 G4:|
